X: 10773
M: 2/4
L: 1/16
K: A
uE2 |\
(EF)GA BcdB | c2 vF4 vF2 | (Ec) zvA GABG | A2 A,6- |\
|: uA2 |\
vA2 ve6 | ud2 uf6 | vc2 ve6 | cBAc BAF2 |\
vc2 ve6 | ud2 uf4 g2 | agae fgaf | ecBc A2 zuE :|
|: v(Ec) zvc B4 | v(Ec) zvc BAF2 | v(Ec) zvc B2f2 | ecBc A2 zuE |\
v(Ec) zvc B4 | v(Ec) zvc BAF2 | (EG)Bc (dc)df | (ec)dB A2 :|


